src/assets/svg/dial-icon.svg

<svg width="18" height="23" viewBox="0 0 18 23" fill="none" xmlns="http://www.w3.org/2000/svg">

    <path
        d="M4 2.05C4 2.52739 3.78929 2.98523 3.41421 3.32279C3.03914 3.66036 2.53043 3.85 2 3.85C1.46957 3.85 0.960859 3.66036 0.585786 3.32279C0.210714 2.98523 0 2.52739 0 2.05C0 1.57261 0.210714 1.11477 0.585786 0.777208C0.960859 0.439642 1.46957 0.25 2 0.25C2.53043 0.25 3.03914 0.439642 3.41421 0.777208C3.78929 1.11477 4 1.57261 4 2.05ZM4 8.35C4 8.82739 3.78929 9.28523 3.41421 9.62279C3.03914 9.96036 2.53043 10.15 2 10.15C1.46957 10.15 0.960859 9.96036 0.585786 9.62279C0.210714 9.28523 0 8.82739 0 8.35C0 7.87261 0.210714 7.41477 0.585786 7.07721C0.960859 6.73964 1.46957 6.55 2 6.55C2.53043 6.55 3.03914 6.73964 3.41421 7.07721C3.78929 7.41477 4 7.87261 4 8.35ZM4 14.65C4 15.1274 3.78929 15.5852 3.41421 15.9228C3.03914 16.2604 2.53043 16.45 2 16.45C1.46957 16.45 0.960859 16.2604 0.585786 15.9228C0.210714 15.5852 0 15.1274 0 14.65C0 14.1726 0.210714 13.7148 0.585786 13.3772C0.960859 13.0396 1.46957 12.85 2 12.85C2.53043 12.85 3.03914 13.0396 3.41421 13.3772C3.78929 13.7148 4 14.1726 4 14.65ZM11 2.05C11 2.52739 10.7893 2.98523 10.4142 3.32279C10.0391 3.66036 9.53043 3.85 9 3.85C8.46957 3.85 7.96086 3.66036 7.58579 3.32279C7.21071 2.98523 7 2.52739 7 2.05C7 1.57261 7.21071 1.11477 7.58579 0.777208C7.96086 0.439642 8.46957 0.25 9 0.25C9.53043 0.25 10.0391 0.439642 10.4142 0.777208C10.7893 1.11477 11 1.57261 11 2.05ZM11 8.35C11 8.82739 10.7893 9.28523 10.4142 9.62279C10.0391 9.96036 9.53043 10.15 9 10.15C8.46957 10.15 7.96086 9.96036 7.58579 9.62279C7.21071 9.28523 7 8.82739 7 8.35C7 7.87261 7.21071 7.41477 7.58579 7.07721C7.96086 6.73964 8.46957 6.55 9 6.55C9.53043 6.55 10.0391 6.73964 10.4142 7.07721C10.7893 7.41477 11 7.87261 11 8.35ZM11 14.65C11 15.1274 10.7893 15.5852 10.4142 15.9228C10.0391 16.2604 9.53043 16.45 9 16.45C8.46957 16.45 7.96086 16.2604 7.58579 15.9228C7.21071 15.5852 7 15.1274 7 14.65C7 14.1726 7.21071 13.7148 7.58579 13.3772C7.96086 13.0396 8.46957 12.85 9 12.85C9.53043 12.85 10.0391 13.0396 10.4142 13.3772C10.7893 13.7148 11 14.1726 11 14.65ZM11 20.95C11 21.4274 10.7893 21.8852 10.4142 22.2228C10.0391 22.5604 9.53043 22.75 9 22.75C8.46957 22.75 7.96086 22.5604 7.58579 22.2228C7.21071 21.8852 7 21.4274 7 20.95C7 20.4726 7.21071 20.0148 7.58579 19.6772C7.96086 19.3396 8.46957 19.15 9 19.15C9.53043 19.15 10.0391 19.3396 10.4142 19.6772C10.7893 20.0148 11 20.4726 11 20.95ZM18 2.05C18 2.52739 17.7893 2.98523 17.4142 3.32279C17.0391 3.66036 16.5304 3.85 16 3.85C15.4696 3.85 14.9609 3.66036 14.5858 3.32279C14.2107 2.98523 14 2.52739 14 2.05C14 1.57261 14.2107 1.11477 14.5858 0.777208C14.9609 0.439642 15.4696 0.25 16 0.25C16.5304 0.25 17.0391 0.439642 17.4142 0.777208C17.7893 1.11477 18 1.57261 18 2.05ZM18 8.35C18 8.82739 17.7893 9.28523 17.4142 9.62279C17.0391 9.96036 16.5304 10.15 16 10.15C15.4696 10.15 14.9609 9.96036 14.5858 9.62279C14.2107 9.28523 14 8.82739 14 8.35C14 7.87261 14.2107 7.41477 14.5858 7.07721C14.9609 6.73964 15.4696 6.55 16 6.55C16.5304 6.55 17.0391 6.73964 17.4142 7.07721C17.7893 7.41477 18 7.87261 18 8.35ZM18 14.65C18 15.1274 17.7893 15.5852 17.4142 15.9228C17.0391 16.2604 16.5304 16.45 16 16.45C15.4696 16.45 14.9609 16.2604 14.5858 15.9228C14.2107 15.5852 14 15.1274 14 14.65C14 14.1726 14.2107 13.7148 14.5858 13.3772C14.9609 13.0396 15.4696 12.85 16 12.85C16.5304 12.85 17.0391 13.0396 17.4142 13.3772C17.7893 13.7148 18 14.1726 18 14.65Z"
        fill="#E8E8E8" style="mix-blend-mode:plus-lighter" />
</svg>

<svg width="18" height="23" fill="none" xmlns="http://www.w3.org/2000/svg"><path d="M4 2.05c0 .477-.21.935-.586 1.273A2.118 2.118 0 0 1 2 3.85c-.53 0-1.04-.19-1.414-.527A1.714 1.714 0 0 1 0 2.05c0-.477.21-.935.586-1.273A2.118 2.118 0 0 1 2 .25c.53 0 1.04.19 1.414.527.375.338.586.796.586 1.273zm0 6.3c0 .477-.21.935-.586 1.273A2.118 2.118 0 0 1 2 10.15c-.53 0-1.04-.19-1.414-.527A1.714 1.714 0 0 1 0 8.35c0-.477.21-.935.586-1.273A2.118 2.118 0 0 1 2 6.55c.53 0 1.04.19 1.414.527.375.338.586.796.586 1.273zm0 6.3c0 .477-.21.935-.586 1.273A2.118 2.118 0 0 1 2 16.45c-.53 0-1.04-.19-1.414-.527A1.714 1.714 0 0 1 0 14.65c0-.477.21-.935.586-1.273A2.118 2.118 0 0 1 2 12.85c.53 0 1.04.19 1.414.527.375.338.586.796.586 1.273zm7-12.6c0 .477-.21.935-.586 1.273A2.118 2.118 0 0 1 9 3.85c-.53 0-1.04-.19-1.414-.527A1.714 1.714 0 0 1 7 2.05c0-.477.21-.935.586-1.273A2.118 2.118 0 0 1 9 .25c.53 0 1.04.19 1.414.527.375.338.586.796.586 1.273zm0 6.3c0 .477-.21.935-.586 1.273A2.118 2.118 0 0 1 9 10.15c-.53 0-1.04-.19-1.414-.527A1.714 1.714 0 0 1 7 8.35c0-.477.21-.935.586-1.273A2.118 2.118 0 0 1 9 6.55c.53 0 1.04.19 1.414.527.375.338.586.796.586 1.273zm0 6.3c0 .477-.21.935-.586 1.273A2.118 2.118 0 0 1 9 16.45c-.53 0-1.04-.19-1.414-.527A1.714 1.714 0 0 1 7 14.65c0-.477.21-.935.586-1.273A2.118 2.118 0 0 1 9 12.85c.53 0 1.04.19 1.414.527.375.338.586.796.586 1.273zm0 6.3c0 .477-.21.935-.586 1.273A2.118 2.118 0 0 1 9 22.75c-.53 0-1.04-.19-1.414-.527A1.714 1.714 0 0 1 7 20.95c0-.477.21-.935.586-1.273A2.118 2.118 0 0 1 9 19.15c.53 0 1.04.19 1.414.527.375.338.586.796.586 1.273zm7-18.9c0 .477-.21.935-.586 1.273A2.118 2.118 0 0 1 16 3.85c-.53 0-1.04-.19-1.414-.527A1.714 1.714 0 0 1 14 2.05c0-.477.21-.935.586-1.273A2.118 2.118 0 0 1 16 .25c.53 0 1.04.19 1.414.527.375.338.586.796.586 1.273zm0 6.3c0 .477-.21.935-.586 1.273A2.118 2.118 0 0 1 16 10.15c-.53 0-1.04-.19-1.414-.527A1.714 1.714 0 0 1 14 8.35c0-.477.21-.935.586-1.273A2.118 2.118 0 0 1 16 6.55c.53 0 1.04.19 1.414.527.375.338.586.796.586 1.273zm0 6.3c0 .477-.21.935-.586 1.273A2.118 2.118 0 0 1 16 16.45c-.53 0-1.04-.19-1.414-.527A1.714 1.714 0 0 1 14 14.65c0-.477.21-.935.586-1.273A2.118 2.118 0 0 1 16 12.85c.53 0 1.04.19 1.414.527.375.338.586.796.586 1.273z" fill="#E8E8E8" style="mix-blend-mode:plus-lighter"/></svg>
